X:1
T:Title
%%score { 1 | 2 }
L:1/8
Q:1/4=90
M:4/4
K:Ab
V:1 treble nm="Grand Piano"
V:2 bass 
V:1
 [CE]2 [CA]>[DB] [Ec]2 [Ec]2 | [FA]2 [EG][DF] [CE]4 | E2 G>B d2 d2 | d2 Ad [Ec]4 | %4
w: M.~A.~Sea * * * *||||
 [Ec]2 [Fd][Ec] B F3 | B2 cB [CA] [CE]2 [CE] | [DF]4 [DA]4 | [CA]8 |] %8
w: ||||
V:2
 [A,,A,]2 [A,,E,]>[A,,A,] [A,,A,]2 [A,,A,]2 | [D,A,]2 [D,A,][D,A,] [A,,A,]4 | %2
 [E,G,B,]2 [E,B,E]>[E,G,E] [E,G,E]2 [E,G,E]2 | [E,G,E]2 [E,F,E][E,G,E] [A,,A,]4 | %4
 [A,,A,]2 [B,,G,][C,A,] [D,F,D] [D,B,D]3 | [E,G,D]2 [E,G,E][E,G,D] [A,,E,] [A,,A,]2 [A,,A,] | %6
 [D,A,]4 [D,F,]4 | [A,,E,]8 |] %8

